zhongan.svg

<svg viewBox="0 0 24 24" xmlns="http://www.w3.org/2000/svg"><path d="M6.97398 5.03994L7.02931 5.09084L12.5856 10.6477C12.9237 10.9852 12.9237 11.533 12.5856 11.8711C12.2658 12.1909 11.7573 12.2075 11.4176 11.9214L11.3623 11.8711L6.4179 6.92617L1.47685 11.8667C1.15649 12.1865 0.648548 12.2036 0.308263 11.917L0.253486 11.8667C-0.0668806 11.5463-0.0834799 11.0384 0.203134 10.6981L0.253486 10.6433L5.80594 5.09084C6.12576 4.77103 6.63425 4.75388 6.97398 5.03994M18.1398 12.0786L18.1945 12.1289L23.7464 17.6814C24.0845 18.0189 24.0845 18.5672 23.7464 18.9048C23.4266 19.2246 22.9181 19.2417 22.5784 18.9557L22.5236 18.9048L17.5793 13.9609L12.5829 18.912C12.2625 19.2296 11.7562 19.245 11.4171 18.9595L11.3623 18.9092L6.4179 13.9643L1.47685 18.9048C1.15649 19.2246 0.648548 19.2417 0.308263 18.9557L0.253486 18.9048C-0.0668806 18.5849-0.0834799 18.0765 0.203134 17.7367L0.253486 17.6814L5.80594 12.1289C6.12576 11.8091 6.63425 11.7925 6.97398 12.0786L7.02931 12.1289L11.977 17.0766L16.9739 12.1262C17.2943 11.8086 17.8006 11.7931 18.1398 12.0786" fill="#01c384"/></svg>

<svg viewBox="0 0 24 24" xmlns="http://www.w3.org/2000/svg"><path d="m6.974 5.04.055.05 5.557 5.558a.865.865 0 0 1-1.168 1.273l-.056-.05-4.944-4.945-4.941 4.94a.865.865 0 0 1-1.169.051l-.055-.05a.865.865 0 0 1-.05-1.169l.05-.055 5.553-5.552a.865.865 0 0 1 1.168-.051m11.166 7.039.055.05 5.551 5.552a.865.865 0 0 1-1.168 1.275l-.054-.051-4.945-4.944-4.996 4.951a.865.865 0 0 1-1.166.047l-.055-.05-4.944-4.945-4.941 4.94a.866.866 0 0 1-1.169.052l-.055-.051a.864.864 0 0 1-.05-1.168l.05-.056 5.553-5.552a.865.865 0 0 1 1.168-.05l.055.05 4.948 4.948 4.997-4.95a.865.865 0 0 1 1.166-.048" fill="#01c384"/></svg>
